X: 1
T: Prästvalsen
O:Piteå, Norrbotten
Z:Johan Dahlberg
R:Vals
H:Från en notbok efter nån präst,därav namnet.
M: 3/4
L: 1/16
K: C
c4 c2B2 c2e2 | c4 c2B2 c2e2 | d4 d2c2 d2g2 | G4 G4>B4 | c4 c2B2 c2e2 |
c4 c2B2 c2e2 | d4 d2c2 B2d2 | c4 c8 :: c4 c2B2 c2A2 |
G4 E4 E4 | F4 F2E2 F2A2 | G4 E4 G4 | c4 c2B2 c2A2 |
G4 E4 E4 | F4 D4 B,4 | C4 C8 :: d2B2 G4 G4 |
e2c2 G8 | f2e2 d2c2 B2c2 | d2c2 B2A2 G4 | d2B2 G4 G4 |
e2c2 G8 | f2e2 d2c2 B2d2 | c4 c4 :|

